public/images/icons/src/Text.svg

<?xml version="1.0" encoding="utf-8"?>
<!-- Generated by IcoMoon.io -->
<!DOCTYPE svg PUBLIC "-//W3C//DTD SVG 1.1//EN" "http://www.w3.org/Graphics/SVG/1.1/DTD/svg11.dtd">
<svg version="1.1" xmlns="http://www.w3.org/2000/svg" xmlns:xlink="http://www.w3.org/1999/xlink" width="32" height="32" viewBox="0 0 32 32">
<path fill="#444" d="M19.94 5.985l5.977 5.98-15.837 15.904-5.998-0.050 0.020-5.93zM5.367 26.55l4.186 0.035 14.556-14.618-4.168-4.17-14.56 14.622zM26.573 11.21l-5.951-5.951 3.015-3.030 1.401 0.009 4.532 4.437 0.019 1.505zM22.43 5.257l4.141 4.141 1.731-1.739-0.005-0.439-3.784-3.705-0.346-0.002z"></path>
</svg>

<?xml version="1.0" encoding="utf-8"?> <!-- Generator: IcoMoon.io --> <!DOCTYPE svg PUBLIC "-//W3C//DTD SVG 1.1//EN" "http://www.w3.org/Graphics/SVG/1.1/DTD/svg11.dtd"> <svg width="32" height="32" viewBox="0 0 32 32" version="1.1" xmlns="http://www.w3.org/2000/svg" xmlns:xlink="http://www.w3.org/1999/xlink" xmlns:sketch="http://www.bohemiancoding.com/sketch/ns" fill="#000000"> <g><path d="M 19.94,5.985 L 25.917,11.965 L 10.080,27.869 L 4.083,27.819 L 4.103,21.889 Z M 5.367,26.55 L 9.553,26.585 L 24.109,11.966 L 19.941,7.797 L 5.381,22.419 Z M 5.367,26.55M 26.573,11.21 L 20.622,5.259 L 23.637,2.229 L 25.037,2.238 L 29.569,6.675 L 29.588,8.18 Z M 22.43,5.257 L 26.57,9.397 L 28.301,7.658 L 28.296,7.219 L 24.512,3.515 L 24.165,3.512 Z M 22.43,5.257"></path></g></svg>
